openmetadata-ui/src/main/resources/ui/src/assets/svg/ic-loss-arrow.svg

<svg width="20" height="15" viewBox="0 0 20 15" fill="none" xmlns="http://www.w3.org/2000/svg">
<path fill-rule="evenodd" clip-rule="evenodd" d="M1.35384 0.162586C1.25619 0.0540793 1.12818 0 1.00017 0C0.872162 0 0.744154 0.0540794 0.646849 0.162977C0.451498 0.379991 0.451498 0.731466 0.646849 0.948524L4.64685 5.39297C4.84216 5.61003 5.15849 5.61003 5.35384 5.39297L9.01818 1.32148L17.6969 10H16.0002C15.7238 10 15.5002 10.2485 15.5002 10.5556C15.5002 10.8626 15.7238 11.1111 16.0002 11.1111H19.0002C19.2765 11.1111 19.5002 10.8626 19.5002 10.5556V7.22222C19.5002 6.91519 19.2765 6.66667 19.0002 6.66667C18.7238 6.66667 18.5002 6.91519 18.5002 7.22222V9.30777L9.33451 0.142231C9.13685 -0.0529517 8.83451 -0.0462678 8.6465 0.162977L5.00017 4.21445L1.35384 0.162586ZM0.5 13.8889H19.5C19.7763 13.8889 20 14.1374 20 14.4444C20 14.7515 19.7763 15 19.5 15H0.5C0.223672 15 0 14.7515 0 14.4444C0 14.1374 0.223672 13.8889 0.5 13.8889Z" fill="#CB2431"/>
</svg>

<svg xmlns="http://www.w3.org/2000/svg" width="20" height="15" fill="none"><path fill="#CB2431" fill-rule="evenodd" d="M1.354.163A.474.474 0 0 0 1 0a.472.472 0 0 0-.353.163.6.6 0 0 0 0 .786l4 4.444a.465.465 0 0 0 .707 0l3.664-4.072L17.697 10H16c-.276 0-.5.248-.5.556 0 .307.224.555.5.555h3c.276 0 .5-.248.5-.555V7.222c0-.307-.224-.555-.5-.555s-.5.248-.5.555v2.086L9.335.142a.466.466 0 0 0-.689.021L5 4.214 1.354.163ZM.5 13.889h19c.276 0 .5.248.5.555 0 .307-.224.556-.5.556H.5c-.276 0-.5-.248-.5-.556 0-.307.224-.555.5-.555Z" clip-rule="evenodd"/></svg>
